!!!COM: Gomółka, Mikołaj
!!!CDT: ~1535-after 1591
!!!OTL: Wsiadaj z dobrym sercem
!!!OTL@LAT: Exaudit te Dominus
!!!AGn: Motet; Psalm
!!!SCn: Gom2020
!!!SCn: Gom2020
!!!voices: 4
**kern	**kern	**kern	**kern
*staff4	*staff3	*staff2	*staff1
*Ivox	*Ivox	*Ivox	*Ivox
*I"Bassus	*I"Tenor	*I"Altus	*I"Cantus
*I'B	*I'T	*I'A	*I'C
*clefF4	*clefGv2	*clefGv2	*clefG2
*k[]	*k[]	*k[]	*k[]
*M2/1	*M2/1	*M2/1	*M2/1
*met(C|)	*met(C|)	*met(C|)	*met(C|)
=1-	=1-	=1-	=1-
1G	1B	1d	1g
1C	1c	1e	1g
=2	=2	=2	=2
2F	1A	2.f	2a
2F	.	.	2a
.	.	4e	.
2G	2B	2d	2g
2G	2B	2d	2g
=3	=3	=3	=3
1C	1c	1e	1g
1F	1A	2.c	1a
.	.	4d	.
=4	=4	=4	=4
2E	2B	2e	2g
2C	4c	2e	1g
.	4B	.	.
1D	4A	2.d	.
.	4G	.	.
.	2A	.	2f#i
.	.	4c	.
=5	=5	=5	=5
*M1/1	*M1/1	*M1/1	*M1/1
1GG	1G	1B	1g
=6	=6	=6	=6
*M2/1	*M2/1	*M2/1	*M2/1
1G	1B	1d	1g
1C	1c	1e	1g
=7	=7	=7	=7
2F	1A	2.f	2a
2F	.	.	2a
.	.	4e	.
2G	2B	2d	2g
2G	2B	2d	2g
=8	=8	=8	=8
1C	1c	1e	1g
1F	1A	2.c	1a
.	.	4d	.
=9	=9	=9	=9
2E	2B	2e	2g
2C	4c	2e	1g
.	4B	.	.
1D	4A	2.d	.
.	4G	.	.
.	2A	.	2f#i
.	.	4c	.
=10	=10	=10	=10
1GG	1G	1B	1g
1G	1d	1g	1b
=11	=11	=11	=11
2C	2e	2g	2cc
2C	2e	2g	2cc
[1GG	[1d	[1g	[1b
=12	=12	=12	=12
2GG]	2d]	2g]	2b]
2D	2d	2f	2a
2D	2d	2f	2a
2D	2f	2d	2a
=13	=13	=13	=13
2G	4g	2d	4b
.	4f	.	4cc
2B	4e	2d	2dd
.	4d	.	.
2A	2e	2.a	2dd
2A	2e	.	2cc#
.	.	4g	.
=14	=14	=14	=14
1D	1d	1f#	1dd
1D	1d	1f#	2a
.	.	.	2a
=15	=15	=15	=15
2G	2d	2g	2b
2E	2e	2g	2b
1A	1c#	1e	1a
=16	=16	=16	=16
2D	2d	2f	2a
2AA	2c	2e	2cc
2BB	2.d	2d	2b
2C	.	2e	[2a
.	4c	.	.
=17	=17	=17	=17
2D	2B	2d	4a]
.	.	.	4g
2E	4A	2c	1g
.	4G	.	.
1D	1A	2.d	.
.	.	.	2f#i
.	.	4c	.
=18	=18	=18	=18
0GG	0G	0B	0g
==	==	==	==
*-	*-	*-	*-
!!!CNT: Polish
!!!OCY: Poland
!!!LYR: Jan Kochanowski (1530-1584/08/22)
!!!GTL: Melodiae na Psałterz Polski
!!!EFL: 20/150
!!!PPR: Łazarz Andrysowicz
!!!PPP: Kraków
!!!PDT: 1580
!!!YEC: 2015 Marcin Konik
!!!ENC: Marcin Konik
!!!END: 2015/03/06
!!!EED: Marcin Konik
!!!EEV: 2015/03/06
!!!ONB: Translated from MusicXML and edited on 2015/03/06 by Marcin Konik
!!!CharacterEncoding: utf-8
!!muse2ps: i2I150v85,85,85,150Q16
!!title: @{OTL}, @{GTL}, ed. @{ENC}
